public/images/logo/js.svg

<svg width="100" height="100" viewBox="0 0 100 100" fill="none" xmlns="http://www.w3.org/2000/svg">
<g clip-path="url(#clip0_0_216)">
<path d="M76.5625 0H23.4375C10.4933 0 0 10.4933 0 23.4375V76.5625C0 89.5067 10.4933 100 23.4375 100H76.5625C89.5067 100 100 89.5067 100 76.5625V23.4375C100 10.4933 89.5067 0 76.5625 0Z" fill="#F0DB4F"/>
<path d="M26.2938 83.5672L33.9462 78.9359C35.4228 81.5535 36.7657 83.7683 39.9872 83.7683C43.0751 83.7683 45.022 82.5605 45.022 77.8621V45.9098H54.4196V77.9949C54.4196 87.7281 48.7142 92.1586 40.3899 92.1586C32.8724 92.1586 28.5087 88.2652 26.2935 83.5664M59.5239 82.5601L67.1755 78.1301C69.1899 81.4195 71.8079 83.8359 76.4392 83.8359C80.3333 83.8359 82.8161 81.889 82.8161 79.2039C82.8161 75.982 80.2653 74.8406 75.9692 72.9617L73.6204 71.9543C66.8403 69.0683 62.3427 65.4433 62.3427 57.791C62.3427 50.7426 67.713 45.3723 76.104 45.3723C82.0782 45.3723 86.3743 47.4535 89.4618 52.8906L82.145 57.5894C80.5337 54.7031 78.7892 53.5621 76.104 53.5621C73.3517 53.5621 71.6063 55.3074 71.6063 57.5894C71.6063 60.4086 73.3517 61.55 77.379 63.2957L79.7282 64.3023C87.7161 67.7262 92.2138 71.216 92.2138 79.0695C92.2138 87.5281 85.5685 92.1594 76.6407 92.1594C67.9146 92.1594 62.2759 87.9976 59.5239 82.5601Z" fill="#323330"/>
</g>
<defs>
<clipPath id="clip0_0_216">
<rect width="100" height="100" fill="white"/>
</clipPath>
</defs>
</svg>

<svg xmlns="http://www.w3.org/2000/svg" width="100" height="100" fill="none"><g clip-path="url(#a)"><path fill="#F0DB4F" d="M76.563 0H23.437C10.493 0 0 10.493 0 23.438v53.124C0 89.507 10.493 100 23.438 100h53.124C89.507 100 100 89.507 100 76.562V23.438C100 10.492 89.507 0 76.562 0Z"/><path fill="#323330" d="m26.294 83.567 7.652-4.631c1.477 2.617 2.82 4.832 6.041 4.832 3.088 0 5.035-1.207 5.035-5.906V45.91h9.398v32.085c0 9.733-5.706 14.164-14.03 14.164-7.518 0-11.881-3.894-14.096-8.593m33.23-1.006 7.651-4.43c2.015 3.29 4.633 5.706 9.264 5.706 3.894 0 6.377-1.947 6.377-4.632 0-3.222-2.55-4.363-6.847-6.242l-2.349-1.008c-6.78-2.886-11.277-6.51-11.277-14.163 0-7.048 5.37-12.419 13.761-12.419 5.974 0 10.27 2.081 13.358 7.519l-7.317 4.698c-1.611-2.886-3.356-4.027-6.041-4.027-2.752 0-4.498 1.745-4.498 4.027 0 2.82 1.746 3.961 5.773 5.707l2.35 1.006c7.987 3.424 12.485 6.914 12.485 14.767 0 8.46-6.645 13.09-15.573 13.09-8.726 0-14.365-4.161-17.117-9.599Z"/></g><defs><clipPath id="a"><path fill="#fff" d="M0 0h100v100H0z"/></clipPath></defs></svg>
